X: 4165
T: Blue Keys, The
R: reel
M: 4/4
K: Amajor
|:F2ce fBc2|Bcaf c2BA|B2Bc efB2|-B2 BA Bcec|
F2ce fBc2|Bcaf c2BA|B2BA Bce2|Bcec ef3:|
z2ba bc'f2|f2 e2 c2 B2|-B2BA Bce2|BBBc A2F2|
z2ba bc'f2|-f2 ec a4|-abaf e2f2|ecB2 ceBA|
-F2ba bc'f2|f2 e2 c2 B2|-B2BA Bce2|BBBc A2F2|
z2ba bc'f2|-f2 ec a4|-abaf e2f2|ecB2 ceBA||

